!!!!SEGMENT: pl-kozmzk--mzk-m-346--036_walczynski-franciszek--cantantibus-organis-allegretto.krn
!!!cenid: 18xx:2831
!!!COM: Walczyński, Franciszek
!!!COM-rismid: pe30021989
!!!CDT: ~1852-1937
!!!CNT: Polish
!!!GTL: Cantantibus organis op. 10
!!!OTL: 36. Allegretto
!!!PDT: 1898
!!!AGN: Secular
!!!SMS-siglum: PL-KOZmzk
!!!SMS-shelfmark: mzk/m/346
!!!SMS-shelfwork: 036 G
!!!SMS-variant:
!!!SMS-altvar:
!!!NIFC-rismid: 1001109435
!!!URL-scan: https://repozytorium.nifc.pl/islandora/object/pl-kozmzk%3A7453/datastream/PDF/view
!!!ONB-nifc:
**kern	**kern	**dynam
*part2	*part1	*part1
*staff2	*staff1	*
*I"Organo	*I"Organo	*
*clefF4	*clefG2	*
*k[b-]	*k[b-]	*
*d:	*d:	*
*M6/8	*M6/8	*
=1	=1	=1
*^	*^	*
!!LO:TX:a:B:t=Allegretto.
2.r	(8A\L	2.rdd	2.rg	p
.	8B-\	.	.	.
.	8A\J	.	.	.
.	4F\	.	.	.
.	8D\	.	.	.
=2	=2	=2	=2	=2
2.r	4F\	2.rdd	2.rg	.
.	8E\	.	.	.
.	4.D\)	.	.	.
=3	=3	=3	=3	=3
[4.A/	(4.C#X\	(8a/L	(4.e\	.
.	.	8b-/	.	.
.	.	8a/J	.	.
4.A/]	4.D\	4dd/	4.f\	.
.	.	8a/	.	.
=4	=4	=4	=4	=4
!	!	!	!	!LO:HP:a
4B-/	4G\	4g/	4e\	<
8Bn/	8G#X\	8f/	8d\	.
4.c#X/	4.A\)	4.e/)	4.c#X\)	[[
=5	=5	=5	=5	=5
!	!	!	!	!LO:DY:a
2.rF	2.rBB	(8a/L	2.r	f
.	.	8b-/	.	.
.	.	8a/J	.	.
.	.	4ee/	.	.
.	.	8a/	.	.
=6	=6	=6	=6	=6
(8a/L	(8D\L	8ff/L	8dd\L	f
8g/	8E\	8ee/	8cc#X\	.
8f/J	8F\J	8dd/J	[8a\J	.
4.d/)	4F#X\	4ccn/)	4a\]	.
.	8G\	8b-/	8g\	.
=7	=7	=7	=7	=7
!	!	!	!	!LO:DY:a
([4.A/	4.A\	(8a/L	8f\L	p
.	.	8g/	8e\	.
.	.	8f/J	[8d\J	.
4A/]	4.AA\)	4e/	8d\]	<
.	.	.	4c#X\	.
8G/)	.	8a/)	.	.
=8	=8	=8	=8	=8
!!LO:LB:g=original
(8F/L	(8D\L	(4.d/	[4.d\	[ >
8G/	8E\	.	.	.
8A/J	8F\J	.	.	.
4B-/)	4G\)	4d/	4d\]	]
!	!	!	!	!LO:DY:a
8rB	8r	8e/)	8r	pp
=9	=9	=9	=9	=9
8rB	8r	(4.f/	(4.d\	.
!	!LO:TX:i:b=2:t=Ped.	!	!	!
(8G#X/L	(8BBn\L	.	.	.
8Bn/J	8GG#X\J	.	.	.
4A/	4.AA\)	4e/	4d\	.
8Gn/)	.	8ryy	8c#X\	.
=10	=10	=10	=10	=10
(8F/L	(8D\L	[4.d/	[4.d\	.
8G/	8E\	.	.	.
8A/J	8F\J	.	.	.
4B-/	4G\	4d/]	4d\]	.
!	!	!	!	!LO:DY:t=pf
8Bn/)	8G#X\)	8e/)	8d\	p
=11	=11	=11	=11	=11
(4A/	(4A\	(8f/L	8d\	pp
.	.	8e/	4c#X\	.
8Gn/	8AA\	8a/J	.	.
4.F/)	4.D\)	4.d/)	4.d\)	.
=12	=12	=12	=12	=12
2.r	[2.DD\	(8dd/L	(8b-\L	fp
.	.	8cc/	8a\	.
.	.	8b-/J	8g\J	.
.	.	4dd/	4.f#X\	.
.	.	8a/	.	.
=13	=13	=13	=13	=13
2.r	2.DD\_	4.g/	8B-\L	.
.	.	.	8Bn\	.
.	.	.	8c#X\J	.
.	.	4.f#X/)	4.d\)	.
=14	=14	=14	=14	=14
2.r	2.DD\_	(8g/L	(8B-X\L	pp
.	.	8f#X/	8A\	.
.	.	8e/J	8G\J	.
!LO:TX:b:i:t=rit.	!	!	!	!LO:DY:a
.	.	4.d/	4.F#X\	.
=15	=15	=15	=15	=15
8BB-/L	2.DD;\]	2.d;/)	4.G\	.
8BB-/	.	.	.	.
8E/J	.	.	.	.
4.D;/	.	.	4.F#X;>\)	.
*v	*v	*	*	*
*	*v	*v	*
==	==	==
*-	*-	*-
!!!system-decoration: {(s1,s2)}
!!!RDF**kern: > = above
!!!RDF**kern: < = below
!!!ENC: Kamil Watkowski
!!!END: 2021-08-09
